X:33
T:In Dublin's Fair City
T:(Cockles and Mussels)
H:Molly Malone
M:3/4
Q:90
K:G
D|GGG|GB G/G/|AAA|Ac B/A/
|BAG|dcB|BAG|A2D
|GGG|GBG|AAA|Ac B/A/
|Bdc|Bdc|BGA|G2
